X:1
T:Title
%%score { ( 1 3 ) | ( 2 4 5 ) }
L:1/8
M:4/4
K:F
V:1 treble nm="Grand Piano"
V:3 treble 
V:2 bass 
V:4 bass 
V:5 bass 
V:1
 z4 z2[Q:1/4=126] F>G | A6 z2 | c6 z2 | B6 z2 |[M:3/4] d6 |[M:1/4] d>d | %6
[M:4/4] [Ed]2 [EG]2 [_E^F]2 [=EG]2 | [Fc]2 [FA]2 [A,CF]2 [CFA]2 | [=B,FG]4 [FGd]4 | [EGc]6 z2 | %10
 A6 z2 | c6 z2 | B6 z2 | d6 z2 | [Ed]2 [EG]2 [Ed]2 [EG]2 | [Fc]2 F2 [Fc]2 B2 | [CFA]4 [B,CEG]4 | %17
[M:3/4] [A,CF]6 |[M:1/4] C2 |[M:4/4] [B,CEG]4 [A,C_E^F]4 | [B,CEG]6 [C_EA]2 | %21
 [EB]4[K:bass] [_EA]4 | [EB]6 [CEG]2 | A2 B2 =B2 c2 | d2 G2 A2 G2 | [Cc]2- [CGc]2 [Cc]2- [CEc]2 | %26
[M:3/4] [CFAc]6 |[M:1/4] C2 |[M:4/4] [B,CEG]4 [A,C_E^F]4 | [B,CEG]6 [C_EA]2 | %30
 [EB]4[K:bass] [_EA]4 | [EB]6[K:bass][K:treble] z2 | A2 B2 =B2 c2 | d2 f2 e2 d2 | [FA]2 z2 c4 | %35
[M:3/4] [A,CF]6 |] %36
V:2
 z8 | [G,,F,]2 C,2 F,,2[K:treble] F>A | [F,,F,]2 [C,C]2 [F,,F,]2 z2 | %3
 [G,,G,]2 D,2 G,,2[K:treble] G>B |[M:3/4][K:bass] [G,,G,]2 [D,D]2 [G,,G,]2 |[M:1/4] z2 | %6
[M:4/4] [C,B,]2 [C,B,]2 [C,A,]2 [C,B,]2 | [C,A,C]2 [C,F,C]2 C,2 C,2 | D,2 G,,2 =B,,2 G,,2 | %9
 C,2 D2 C,>B, A,>G, | [F,,F,]2 C,2 F,,2[K:treble] F>A | [F,,F,]2 [C,C]2 [F,,F,]2 z2 | %12
 [G,,G,]2 D,2 G,,2[K:treble] G>B | [G,,G,]2 [D,D]2 [G,,G,]2 z2 | [C,B,]2 [C,B,]2 [C,B,]2 [C,B,]2 | %15
 [C,A,]2 [C,A,]2 [C,A,]2 G2 | C,2 C,2 C,2 C,2 |[M:3/4] F,2 C,2 F,,2 |[M:1/4] C,2 | %19
[M:4/4] C,2 C,2 C,2 C,2 | C,2 C,2 C,2 ^F,2 | [G,C]4 [^F,C]4 | [G,C]2- [C,G,-C-]2 [C,G,C]2 C,2 | %23
 C2- [G,CE]2[K:treble] F2- [=A,CF-]2 | [B,F-]2 [=B,DF]2 E2- [_B,CE]2 | %25
 [A,,A,]2 [B,,B,]2 [A,,A,]2 [G,,G,]2 |[M:3/4] [F,,F,]2 C,2 F,,2 |[M:1/4] C,2 | %28
[M:4/4] C,2 C,2 C,2 C,2 | C,2 C,2 C,2 ^F,2 | [G,C]4 [^F,C]4 | [G,C]6 z2 | z8 | z2 D6 | %34
 [C,C]2 [B,,B,]2 [A,,A,]2 [G,,G,]2 |[M:3/4] [F,,F,]2 C,2 F,,2 |] %36
V:3
 x8 | [A,CF]2 [A,CF]2 [F,A,CF]2 z2 | [CFA]2 [FA]2 [CFA]2 G>A | [B,DG]2 [B,DG]2 [G,B,DG]2 z2 | %4
[M:3/4] [DGB]2 [GB]2 [DGB]2 |[M:1/4] x2 |[M:4/4] x8 | x8 | x8 | z4 C2 F>G | %10
 [A,CF]2 [A,CF]2 [F,A,CF]2 z2 | [CFA]2 [FA]2 [CFA]2 G>A | [B,DG]2 [B,DG]2 [G,B,DG]2 z2 | %13
 [DGB]2 [GB]2 [DGB]2 d>d | x8 | x8 | x8 |[M:3/4] x6 |[M:1/4] x2 |[M:4/4] x8 | x8 | %21
 z2[K:bass] C,2 z2 C,2 | x8 | x8 | x8 | F2 z2 F2 z2 |[M:3/4] x6 |[M:1/4] x2 |[M:4/4] x8 | x8 | %30
 z2[K:bass] C,2 z2 C,2 | z2[K:bass] C,2 C,2[K:treble] [EG]2 | x8 | x8 | c2- [EGc]2 [CF]2 [B,CE]2 | %35
[M:3/4] x6 |] %36
V:4
 x8 | x6[K:treble] x2 | x8 | x6[K:treble] x2 |[M:3/4][K:bass] x6 |[M:1/4] x2 |[M:4/4] x8 | x8 | %8
 x8 | x8 | x6[K:treble] x2 | x8 | x6[K:treble] x2 | x8 | x8 | x8 | x8 |[M:3/4] x6 |[M:1/4] x2 | %19
[M:4/4] x8 | x8 | C,2 z2 C,2 z2 | C,2 z2 z4 | [F,F]2 z2[K:treble] [_A,D]2 z2 | z4 C2 z2 | x8 | %26
[M:3/4] x6 |[M:1/4] x2 |[M:4/4] x8 | x8 | C,2 z2 C,2 z2 | C,2 z2 z2 [C,C]2 | %32
 [F,F]2 [G,E]2 F2- [A,CF-]2 | F4- [=B,F_A]4 | x8 |[M:3/4] x6 |] %36
V:5
 x8 | x6[K:treble] x2 | x8 | x6[K:treble] x2 |[M:3/4][K:bass] x6 |[M:1/4] x2 |[M:4/4] x8 | x8 | %8
 x8 | x8 | x6[K:treble] x2 | x8 | x6[K:treble] x2 | x8 | x8 | x8 | x8 |[M:3/4] x6 |[M:1/4] x2 | %19
[M:4/4] x8 | x8 | x8 | x8 | x4[K:treble] x4 | x8 | x8 |[M:3/4] x6 |[M:1/4] x2 |[M:4/4] x8 | x8 | %30
 x8 | x8 | z4 [G,D]2 z2 | B,4 z4 | x8 |[M:3/4] x6 |] %36

